brandFactory_export/3.Masa/Cara emoji triste_3Masa.svg

<?xml version="1.0" encoding="UTF-8"?>
<svg width="24px" height="24px" viewBox="0 0 24 24" version="1.1" xmlns="http://www.w3.org/2000/svg" xmlns:xlink="http://www.w3.org/1999/xlink">
    <title>3.Masa/Cara emoji triste_3Masa</title>
    <g id="Symbols" stroke="none" stroke-width="1" fill="none" fill-rule="evenodd">
        <g id="3.Masa/Cara-emoji-triste_3Masa" fill="#5CB615" fill-rule="nonzero">
            <path d="M11.8084034,0 C19.2705882,0 23.6235294,3.76806723 23.6235294,11.8151261 C23.6235294,19.8621849 19.2705882,23.6235294 11.8084034,23.6235294 C4.34621849,23.6235294 0,19.8621849 0,11.8151261 C0,3.76806723 4.34621849,0 11.8084034,0 Z M11.9159664,13.697479 C11.7310924,13.6907563 7.32773109,13.5361345 4.52773109,16.6722689 C4.25546218,16.9781513 4.28235294,17.4453782 4.58823529,17.7142857 C4.89411765,17.9865546 5.35798319,17.9596639 5.6302521,17.6537815 C7.95966387,15.0487395 11.8184874,15.1764706 11.8789916,15.1697479 C15.6907563,15.210084 17.9798319,17.6773109 18.0033613,17.7008403 C18.1478992,17.8621849 18.3495798,17.9428571 18.5512605,17.9428571 C18.7260504,17.9428571 18.9042017,17.8823529 19.0453782,17.7546218 C19.3478992,17.4823529 19.3747899,17.0151261 19.0991597,16.712605 C18.9882353,16.5915966 16.3731092,13.7445378 11.9159664,13.697479 L11.9159664,13.697479 Z M8.22857143,10.0705882 C8.65546218,10.0705882 9.01176471,9.93613445 9.2605042,9.68403361 C9.50252101,9.43529412 9.62689076,9.09243697 9.62689076,8.66890756 C9.62689076,7.80168067 9.08907563,7.26386555 8.22857143,7.26386555 C7.36470588,7.26386555 6.8302521,7.80168067 6.8302521,8.66890756 C6.8302521,9.09243697 6.95462185,9.43529412 7.19663866,9.68403361 C7.44537815,9.93613445 7.80168067,10.0705882 8.22857143,10.0705882 L8.22857143,10.0705882 Z M15.394958,10.0705882 C15.8218487,10.0705882 16.1781513,9.93613445 16.4268908,9.68403361 C16.6722689,9.43529412 16.7966387,9.09243697 16.7966387,8.66890756 C16.7966387,7.80168067 16.2588235,7.26386555 15.3983193,7.26386555 C14.5344538,7.26386555 14,7.80168067 14,8.66890756 C14,9.09243697 14.1243697,9.43529412 14.3663866,9.68403361 C14.6084034,9.93613445 14.9647059,10.0705882 15.394958,10.0705882 L15.394958,10.0705882 Z" id="Cara-emoji-triste_3Masa"></path>
        </g>
    </g>
</svg>

<svg width="24" height="24" viewBox="0 0 24 24" xmlns="http://www.w3.org/2000/svg"><path d="M11.808 0c7.463 0 11.816 3.768 11.816 11.815S19.27 23.624 11.808 23.624C4.346 23.624 0 19.862 0 11.815 0 3.768 4.346 0 11.808 0zm.108 13.697c-.185-.006-4.588-.16-7.388 2.975a.735.735 0 00.06 1.042.736.736 0 001.042-.06c2.33-2.605 6.188-2.478 6.249-2.484 3.812.04 6.1 2.507 6.124 2.53a.733.733 0 00.548.243.735.735 0 00.548-1.23c-.11-.121-2.726-2.968-7.183-3.016zm-3.687-3.626c.426 0 .783-.135 1.032-.387.242-.249.366-.592.366-1.015 0-.867-.538-1.405-1.398-1.405-.864 0-1.399.538-1.399 1.405 0 .423.125.766.367 1.015.248.252.605.387 1.032.387zm7.166 0c.427 0 .783-.135 1.032-.387.245-.249.37-.592.37-1.015 0-.867-.538-1.405-1.399-1.405-.864 0-1.398.538-1.398 1.405 0 .423.124.766.366 1.015.242.252.599.387 1.029.387z" fill="#5CB615" fill-rule="nonzero"/></svg>
